packages/icons/src/components/Icon/assets/small-solid/phone.svg

<svg width="16" height="16" viewBox="0 0 16 16" fill="none" xmlns="http://www.w3.org/2000/svg">
<path fill-rule="evenodd" clip-rule="evenodd" d="M3.16373 7.16725L4.40948 6.54437C4.86276 6.31773 5.11789 5.82437 5.04083 5.32348L4.52787 1.98927C4.44031 1.42013 3.95061 1 3.37477 1H2.16667C1.52233 1 1 1.52233 1 2.16667V4.5C1 5.32692 1.09576 6.13259 1.27717 6.9061C2.18422 10.7736 5.22643 13.8158 9.0939 14.7228C9.86741 14.9042 10.6731 15 11.5 15H13.8333C14.4777 15 15 14.4777 15 13.8333V12.6252C15 12.0494 14.5799 11.5597 14.0107 11.4721L10.6765 10.9592C10.1756 10.8821 9.68227 11.1372 9.45563 11.5905L8.83275 12.8363C6.14604 11.9774 4.02264 9.85396 3.16373 7.16725Z" fill="black"/>
</svg>

<svg xmlns="http://www.w3.org/2000/svg" width="16" height="16" fill="none" viewBox="0 0 16 16">
    <path fill="#000" fill-rule="evenodd" d="m3.164 7.167 1.245-.623c.454-.226.709-.72.632-1.22l-.513-3.335A1.17 1.17 0 0 0 3.375 1H2.167C1.522 1 1 1.522 1 2.167V4.5c0 .827.096 1.633.277 2.406a10.51 10.51 0 0 0 7.817 7.817c.773.181 1.58.277 2.406.277h2.333c.645 0 1.167-.522 1.167-1.167v-1.208c0-.576-.42-1.065-.99-1.153l-3.333-.513a1.17 1.17 0 0 0-1.221.632l-.623 1.245a8.77 8.77 0 0 1-5.67-5.669" clip-rule="evenodd"/>
</svg>
